X: 2275
M: 6/8
L: 1/8
K: Bb
uF |\
|:\
uf |\
fgf dBd | f3 uB2uf | fgf edc | B3 uG2uf |\
fgf edc | Bdf bab | gfe dcd | B3 G2 :|


